X: 42308
T: Wedding Party, The
R: jig
M: 6/8
K: Amajor
|:EAA cBA|d2 f ecA|def efg|aec BAF|
EAA cBA|d2 f ecA|def efg|aec A2e:|
|:fdd add|eAA cBA|dBB EGB|EAc edc|
fdd add|eAA cBA|dBB EGB|cAA A2e:|

